X:1
T:Title
%%score { ( 1 2 5 ) | ( 3 4 ) }
L:1/8
Q:1/4=126
M:6/4
K:Eb
V:1 treble nm="Grand Piano"
V:2 treble 
V:5 treble 
V:3 bass 
V:4 bass 
V:1
 G6 .F6 | [EG]12[K:bass] | G6 .F6 | [DFA]12[K:bass] | A6 .G6 | [DFA]12[K:bass] | A6 .G6 | %7
w: Haldor~Lillenas *|||||||
 [EGB]12[K:bass] | G6 .F6 | G12 | G6 .c6 | A12[K:bass][K:treble] | e6 .d6 |[M:7/4] B6 c6 z2 | %14
w: |||||||
[M:6/4] G6 F6 |[M:5/4][K:bass] [G,B,E]2- [G,B,E]6 z2 |[M:1/4][K:treble] B2 | %17
w: |||
[M:6/4] [Ge]2 G2 A2 [GB]2 c2 B2 | [DFAB]6[K:bass][K:treble] .[DFA]6 | [Fd]2 F2 G2 [FA]2 d2 c2 | %20
w: |||
 [EGB]6 .[EG]6 | [Ge]2 G2 A2 [GB]2 c2 B2 | [DFAB]6[K:bass][K:treble] z6 | .[F,EF]6 c2 =B2 c2 | %24
w: ||||
 d6 .B6 | [Ge]2 e2 e2 [Ge]2 [Ge]2 [Ge]2 | .[Gd]6 [Fd]6 | c2 c2 c2 [Ec]2 [Ec]2 [Ec]2 | .B6 [EB]6 | %29
w: |||||
 [E=A]2 [EA]2 [EA]2 [EB]2 [EB]2 [EB]2 | [E=A]2 [EA]2 [EA]2 [EB]2 [Ec]2 [Ee]2 | %31
w: ||
 g2- [eg-]2 [eg]2 z2 d2 d2 | e12 |] %33
w: ||
V:2
 z2 E2 E2 z2 E2 E2 | z2[K:bass] G,2 B,2 C2 B,2 G,2 | z2 E2 E2 z2 E2 E2 | %3
 z2[K:bass] G,2 F,2 D,2 C,2 B,,2 | z2 F2 F2 z2 D2 F2 | z2[K:bass] G,2 F,2 D,2 C,2 B,,2 | %6
 z2 F2 F2 z2 D2 F2 | z2[K:bass] G,2 B,2 C2 B,2 G,2 | z2 E2 E2 z2 E2 E2 | z2 E2 E2 z2 F2 F2 | %10
 z2 E2 E2 z2 B2 B2 | z2 F2 F2[K:bass] z2[K:treble] F2 c2 | z2 c2 c2 z2 A2 c2 | %13
[M:7/4] z2 G2 G2 z2 B4 [CFA]2 |[M:6/4] z2 E2 E2 z2 D2 D2 |[M:5/4][K:bass] E,2 z2 z2 z4 | %16
[M:1/4][K:treble] x2 |[M:6/4] x12 | z2[K:bass] D,2 F,2[K:treble] A,2 G,2 A2 | x12 | %20
 z2 G,2 B,2 C2 B,2 B2 | x12 | z2[K:bass] D,2 F,2[K:treble] .[B,DFA]6 | z6 E6 | %24
 z2 [FAB]2 [FAB]2 z2 [FA]2 [FAB]2 | x12 | z2 F2 [EGd]2 D2 C2 =B,2 | x12 | E2 E2 [DEB]2 C2 B,2 G,2 | %29
 x12 | x12 | .G6 f6 | z2 B2 B2 .B6 |] %33
V:3
 z2 [G,B,]2 [G,B,]2 z2 [G,B,]2 [G,B,]2 | [E,,E,]2 G,,2 B,,2 C,2 B,,2 G,,2 | %2
 z2 [G,B,]2 [G,B,]2 z2 [G,B,]2 [G,B,]2 | [F,,F,]2 G,,2 F,,2 D,,2 C,,2 B,,,2 | %4
 z2 D2 D2 z2 B,2 [B,D]2 | [F,,F,]2 G,,2 F,,2 D,,2 C,,2 B,,,2 | z2 D2 D2 z2 B,2 [B,D]2 | %7
 [E,,E,]2 G,,2 B,,2 C,2 B,,2 G,,2 | z2 [G,B,]2 [G,B,]2 z2 [G,B,]2 [G,B,]2 | %9
 z2 [G,B,]2 [G,B,]2 z2 =B,2 B,2 | z2 C2 C2 z2[K:treble] [CG]2 [CG]2 | z2 C2 C2 z2 C2 [CF]2 | %12
 z2[K:treble] _G2 G2[K:bass] z2[K:treble] G2 [GA]2 |[M:7/4][K:bass] z2 E2 E2 z2 [=EG]4 [F,,F,]2 | %14
[M:6/4] z2 [G,B,]2 [G,B,]2 z2 [A,C]2 A,2 |[M:5/4] E,,2 B,,2 G,,2 E,,2 z2 |[M:1/4] G2 | %17
[M:6/4] z2[K:treble] E2 F2[K:bass] z2[K:treble] A2 G2 | [B,,,B,,]2 D,,2 F,,2 A,,2 G,,2 [F,,F,]2 | %19
 z2 D2 E2 z2[K:treble] B2 A2 | [E,,E,]2 G,,2 B,,2 C,2 B,,2 [G,,G,]2 | %21
 z2[K:treble] E2 F2[K:bass] z2[K:treble] A2 G2 | [B,,,B,,]2 D,,2 F,,2 B,,4 G2 | %23
 z2[K:treble] =A2 B2[K:bass] [=A,,=A,]6 | [B,,B,]2 [D,D]2 [C,C]2 [B,,B,]2 [A,,A,]2 [F,,F,]2 | %25
 z2[K:treble] G2 G2[K:bass] [E,B,]4 [E,B,]2 | [G,=B,]2 G,2 G,2 G,2 G,2 G,2 | [A,C]6 z6 | %28
 [B,,G,]2 B,,2 B,,2 B,,2 B,,2 B,,2 | [=B,,_G,]2 [B,,G,]2 [B,,G,]2 [_B,,=G,]2 [B,,G,]2 [B,,G,]2 | %30
 [=B,,_G,]2 [B,,G,]2 [B,,G,]2 [_B,,=G,]2 [B,,G,]2 [B,,G,]2 | %31
 z2[K:treble] [GB]2 [GB]2 z2 [AB]2 [AB]2 | z2 G2 G2 .G6 |] %33
V:4
 [E,,E,]6 [B,,,B,,]6 | x12 | [E,,E,]6 [B,,,B,,]6 | x12 | [F,,F,]6 [B,,,B,,]6 | x12 | %6
 [F,,F,]6 [B,,,B,,]6 | x12 | [E,,E,]6 [B,,,B,,]6 | [E,,E,]6 D,,6 | [C,,C,]6 [=E,,=E,]6[K:treble] | %11
 [F,,F,]6 C,,6 | [=A,,,=A,,]6[K:treble][K:bass] [D,,D,]6[K:treble] | %13
[M:7/4][K:bass] [E,,E,]6 [C,,C,]6 z2 |[M:6/4] [B,,,B,,]6 [D,,D,]6 |[M:5/4] x10 |[M:1/4] x2 | %17
[M:6/4] [E,,E,]6[K:treble][K:bass] [B,,B,]6[K:treble] | x12 | [B,,B,]6 [F,,F,]6[K:treble] | x12 | %21
 [E,,E,]6[K:treble][K:bass] [B,,B,]6[K:treble] | x12 | F,,6[K:treble][K:bass] z6 | x12 | %25
 [E,B,]6[K:treble][K:bass] z6 | x12 | E2 E2 E2 [A,,A,]4 [A,,A,]2 | x12 | x12 | x12 | %31
 [B,,B,E]6[K:treble] [B,,A,DF]6 | [E,G,E]12 |] %33
V:5
 x12 | x2[K:bass] x10 | x12 | x2[K:bass] x10 | x12 | x2[K:bass] x10 | x12 | x2[K:bass] x10 | x12 | %9
 z6 D,6 | x12 | z6[K:bass] C,6[K:treble] | x12 |[M:7/4] x14 |[M:6/4] x12 |[M:5/4][K:bass] x10 | %16
[M:1/4][K:treble] x2 |[M:6/4] x12 | x2[K:bass] x4[K:treble] x6 | x12 | x12 | x12 | %22
 x2[K:bass] x4[K:treble] x6 | x12 | x12 | x12 | x12 | x12 | x12 | x12 | x12 | x12 | x12 |] %33

